!!!COA: Josquin des Prez
!!!CDT: ~1450-1521/08/27
!!!OTL: Parfons regretz
!!!AGN: Chanson
!!!SCT: NJE 29.19
!!!SCA: New Josquin Edition 29.19
!!!voices: 5
**kern	**kern	**kern	**kern	**kern
*staff5	*staff4	*staff3	*staff2	*staff1
*Ivox	*Ivox	*Ivox	*Ivox	*Ivox
*I"Bassus	*I"Tenor	*I"Quintus	*I"Contratenor	*I"Superius
*I'B	*I'T	*I'Q	*I'Ct	*I'S
*clefF4	*clefGv2	*clefGv2	*clefGv2	*clefG2
*k[b-]	*k[b-]	*k[b-]	*k[b-]	*k[b-]
*M2/1	*M2/1	*M2/1	*M2/1	*M2/1
*met(C|)	*met(C|)	*met(C|)	*met(C|)	*met(C|)
=1-	=1-	=1-	=1-	=1-
!LO:TX:Z=10:t=Canon at the upper octave	!	!	!	!
0r	0G	0r	0g	0r
=2	=2	=2	=2	=2
0r	1d	0r	1.f	0r
.	1d	.	.	.
.	.	.	4e\	.
.	.	.	4d\	.
=3	=3	=3	=3	=3
0r	1.c	0r	1e	0g
.	.	.	1e	.
.	2B-\	.	.	.
=4	=4	=4	=4	=4
0r	1G	0r	0d	1dd
.	1G	.	.	1dd
=5	=5	=5	=5	=5
0r	1A	0r	1r	1.cc
.	1A	.	1f	.
.	.	.	.	2b-\
=6	=6	=6	=6	=6
0r	1c	0r	1e	0g
.	1c	.	1e	.
=7	=7	=7	=7	=7
0GG	2B-\	0r	0d	1r
.	2G/	.	.	.
.	1B-	.	.	1g
=8	=8	=8	=8	=8
1D	0A	0r	1r	1.a
1D	.	.	1f	.
.	.	.	.	2b-\
=9	=9	=9	=9	=9
1.C	0r	0r	1e	1cc
.	.	.	1e	1cc
2BB-/	.	.	.	.
=10	=10	=10	=10	=10
0GG	1r	0G	2d\	1.b-
.	.	.	2g\	.
.	1G	.	2g\	.
.	.	.	2g\	4a/
.	.	.	.	4g/
=11	=11	=11	=11	=11
1r	1D	1d	1f	2a/
.	.	.	.	2a/
1GG	1G	1d	1g	2b-\
.	.	.	.	2b-\
=12	=12	=12	=12	=12
1.AA	1C	1.c	2.e\	2cc\
.	.	.	.	2a/
.	.	.	4d\	.
.	1C	.	1c	[1cc
2BB-/	.	2B-\	.	.
=13	=13	=13	=13	=13
1C	0E-	0G	1r	2cc\]
.	.	.	.	2b-\
1C	.	.	1c	1g
=14	=14	=14	=14	=14
2BB-/	1D	1r	1d	2r
2GG/	.	.	.	2b-\
1BB-	2r	1G	1d	2b-\
.	2D/	.	.	2b-\
=15	=15	=15	=15	=15
0AA	1F	1.A	1c	2cc\
.	.	.	.	2a/
.	1E	.	1c	[1cc
.	.	2B-\	.	.
=16	=16	=16	=16	=16
0r	1C	1c	0e-	2cc\]
.	.	.	.	2b-\
.	1C	1c	.	2.g/
.	.	.	.	4a/
=17	=17	=17	=17	=17
0GG	0G	2B-\	1d	4b-\
.	.	.	.	4cc\
.	.	2G/	.	1b-
.	.	1B-	2r	.
.	.	.	2d\	4a/
.	.	.	.	4g/
=18	=18	=18	=18	=18
1D	1F	0A	1f	1a
1D	2r	.	2r	2r
.	2F/	.	2d\	2a/
=19	=19	=19	=19	=19
1.C	1G	0r	1e	1cc
.	2.E/	.	1e	1cc
2BB-/	.	.	.	.
.	4F/	.	.	.
=20	=20	=20	=20	=20
0GG	1G	0G	2d\	0b-
.	.	.	2g\	.
.	2r	.	2g\	.
.	2G/	.	2g\	.
=21	=21	=21	=21	=21
1r	1D	1d	1f	2r
.	.	.	.	2a/
1GG	1G	1d	1g	2b-\
.	.	.	.	2b-\
=22	=22	=22	=22	=22
1.AA	1C	1.c	2.e\	2cc\
.	.	.	.	2a/
.	.	.	4d\	.
.	1C	.	1c	[1cc
2BB-/	.	2B-\	.	.
=23	=23	=23	=23	=23
1C	0E-	0G	1r	2cc\]
.	.	.	.	2b-\
1C	.	.	1c	1g
=24	=24	=24	=24	=24
2BB-/	1D	1r	1d	2r
2GG/	.	.	.	2b-\
1BB-	2r	1G	1d	2b-\
.	2D/	.	.	2b-\
=25	=25	=25	=25	=25
0AA	1F	1.A	1c	2cc\
.	.	.	.	2a/
.	1E	.	1c	[1cc
.	.	2B-\	.	.
=26	=26	=26	=26	=26
0r	1C	1c	0e-	2cc\]
.	.	.	.	2b-\
.	1C	1c	.	2.g/
.	.	.	.	4a/
=27	=27	=27	=27	=27
0r	0G	2B-\	0d	4b-\
.	.	.	.	4cc\
.	.	2G/	.	1b-
.	.	1B-	.	.
.	.	.	.	4a/
.	.	.	.	4g/
=28	=28	=28	=28	=28
0D	0F	0A	1r	1a
.	.	.	1f	2r
.	.	.	.	2a/
=29	=29	=29	=29	=29
1G	1r	0r	1g	1b-
1G	2.B-\	.	2.d\	1b-
.	4c\	.	4e\	.
=30	=30	=30	=30	=30
1F	2d\	0r	0f	0a
.	1c	.	.	.
1F	.	.	.	.
.	4B-\	.	.	.
.	4A/	.	.	.
=31	=31	=31	=31	=31
1G	2B-\	0d	2r	0r
.	2G/	.	2B-\	.
2F\	2A/	.	2A/	.
[2G\	[2B-\	.	4G/	.
.	.	.	4A/	.
=32	=32	=32	=32	=32
4G\]	4B-\]	1g	4B-\	0r
4F\	4A/	.	4c\	.
4E\	4G/	.	2.d\	.
4D\	4F/	.	.	.
2E\	1G	1g	.	.
.	.	.	4c#i\	.
2E\	.	.	4c#i\	.
.	.	.	4Bni\	.
=33	=33	=33	=33	=33
0D	0A	1f	0d	1r
.	.	1f	.	1a
=34	=34	=34	=34	=34
0r	2r	1g	0r	1b-
.	2G/	.	.	.
.	2d\	2f\	.	2a/
.	2B-\	[2g\	.	[2b-\
=35	=35	=35	=35	=35
0r	2.G/	4g\]	0r	4b-\]
.	.	4f\	.	4cc\
.	.	4e\	.	2.dd\
.	4B-\	4d\	.	.
.	1A	2e\	.	.
.	.	.	.	4cc#i\
.	.	2e\	.	4cc#i\
.	.	.	.	4bni\
=36	=36	=36	=36	=36
0D	1D	0d	1r	1dd
.	[1d	.	1f	2r
.	.	.	.	2a/
=37	=37	=37	=37	=37
1G	1d]	0r	1g	1b-
1G	1B-	.	2.d\	1b-
.	.	.	4e\	.
=38	=38	=38	=38	=38
1F	1c	0r	0f	0a
1F	1A	.	.	.
=39	=39	=39	=39	=39
1G	2B-\	0d	2r	0r
.	2G/	.	2B-\	.
2F\	2A/	.	2A/	.
[2G\	[2B-\	.	4G/	.
.	.	.	4A/	.
=40	=40	=40	=40	=40
4G\]	4B-\]	1g	4B-\	0r
4F\	4A/	.	4c\	.
4E\	4G/	.	2.d\	.
4D\	4F/	.	.	.
2E\	1G	1g	.	.
.	.	.	4c#i\	.
2E\	.	.	4c#i\	.
.	.	.	4Bni\	.
=41	=41	=41	=41	=41
0D	0A	1f	0d	1r
.	.	1f	.	1a
=42	=42	=42	=42	=42
0r	2r	1g	0r	1b-
.	2G/	.	.	.
.	2d\	2f\	.	2a/
.	2B-\	[2g\	.	[2b-\
=43	=43	=43	=43	=43
0r	2.G/	4g\]	0r	4b-\]
.	.	4f\	.	4cc\
.	.	4e\	.	1dd
.	4B-\	4d\	.	.
.	1A	2e\	.	.
.	.	2e\	.	2cc#i\
=44	=44	=44	=44	=44
1r	0D	0d	0r	1dd
1F	.	.	.	2r
.	.	.	.	2a/
=45	=45	=45	=45	=45
1G	1r	0r	0r	1b-
1G	1d	.	.	1b-
=46	=46	=46	=46	=46
1A	1f	0r	0r	1a
1A	1e	.	.	1cc
=47	=47	=47	=47	=47
1.B-	0d	1r	1r	1.dd
.	.	1f	1d	.
2A\	.	.	.	2cc\
=48	=48	=48	=48	=48
2G\	0r	1g	1d	2b-\
2F\	.	.	.	2a/
1E	.	1g	1e	1g
=49	=49	=49	=49	=49
0D	1r	1a	1f	0f
.	1d	1a	2r	.
.	.	.	2f\	.
=50	=50	=50	=50	=50
0r	1G	1.b-	1g	0r
.	2G/	.	2r	.
.	4A/	2a\	2f\	.
.	4B-\	.	.	.
=51	=51	=51	=51	=51
0r	2c\	2g\	2e\	0r
.	2d\	2f\	2d\	.
.	1A	1e	1c#i	.
=52	=52	=52	=52	=52
0BB-	0D	0d	1d	0r
.	.	.	2r	.
.	.	.	2d\	.
=53	=53	=53	=53	=53
1C	1r	0r	1e	0r
1C	1G	.	1e	.
=54	=54	=54	=54	=54
1D	1B-	0r	1d	0r
1D	1A	.	1f	.
=55	=55	=55	=55	=55
1.E-	0G	0B-	1.g	1r
.	.	.	.	1g
2D\	.	.	2f\	.
=56	=56	=56	=56	=56
2C/	0r	1c	2e-i\	1g
2BB-/	.	.	2d\	.
1AA	.	1c	1c	1a
=57	=57	=57	=57	=57
0GG	1r	1d	0B-	1b-
.	1G	1d	.	1b-
=58	=58	=58	=58	=58
0r	1.g	1.e-	0r	1.cc
.	2f\	2d\	.	2b-\
=59	=59	=59	=59	=59
0r	2e-i\	2c\	0r	2a/
.	2d\	2B-\	.	2g/
.	1c	1A	.	4f#i/
.	.	.	.	4g/
.	.	.	.	4a/
.	.	.	.	4f#i/
=60	=60	=60	=60	=60
!	!	!LO:N:vis=0	!	!
1r	1d	[0Gl	1r	0g
1GG	2r	.	1B-	.
.	2d\	.	.	.
=61	=61	=61	=61	=61
1C	1e-i	0G_	1c	1r
1C	1e-i	.	1c	1g
=62	=62	=62	=62	=62
1GG	1d	0G_	1B-	1b-
2r	2r	.	2r	1b-
2GG/	2d\	.	2B-\	.
=63	=63	=63	=63	=63
1.C	1.e-i	0G_	1.c	1g
.	.	.	.	2r
2C/	2e-i\	.	2c\	2g/
=64	=64	=64	=64	=64
2BB-/	2d\	0G_	2d\	2b-\
2GG/	2d\	.	2B-\	2b-\
2.C/	1e-i	.	1c	2g/
.	.	.	.	2g/
4BB-/	.	.	.	.
=65	=65	=65	=65	=65
[0GGl	[0dl	0G_	[0B-l	1.b-
.	.	.	.	2g/
=66	=66	=66	=66	=66
0GG]	0d]	0G]	0B-]	0gl
==	==	==	==	==
*-	*-	*-	*-	*-
!!!RDF**kern: l=long note in original notation
!!!RDF**kern: i=editorial accidental
!!!ENC: Will Watson 09/12/2011
!!!END: 2011/12/09/
!!!EED: Jesse Rodin
!!!EEV: 2012/01/22/
!!attribution-level@Jos: 3 (tricky)
!!!ONB: Translated from MusicXML and edited on 2012/01/22/ by Craig Sapp
!!muse2ps:  C^@{COA}?\n@{SCT}^v90,90,90,90,90,130Q16
